X:1
T:Clocks
C:Coldplay
M:4/4
L:1/4
Q:1/4=130
K:G
|: d/2 A/2 F/2 d/2 A/2 F/2 d/2 A/2 | c/2 A/2 E/2 c/2 A/2 E/2 c/2 A/2 | c/2 A/2 E/2 c/2 A/2 E/2 c/2 A/2 | B/2 G/2 E/2 B/2 G/2 E/2 B :| d d d d/2 B/2 | c/2 B A5/2 | c c/2 c/2 c3/2 A/2 | B/2 A G3/2 D 